X:155
T:The Canadian Waltz
M:3/4
L:1/8
K:D
FAc|e3 d cd|cd cA FA|B2 Bc BG|E2 EF ED|CA, CE Ac|
|1 ed cB Ae| fa fd Af| e3 FAc :|2 ed cB Ac|df Ad FA|D4 F||
FB cd cB|ce dc Bc|ce dc de|fd Bd F2|fe dc BA|(G4 G2)|
ed cB Ac|(F4 F2)|fd BA BF|c2 ^G4|F_B Bc de|(f4 f2)|
cb ge gb|fd BA FB|^G GB _BF|(B4 B2) :|
